X:2255
T:Bucket, The
R:Slip jig
O:England
M:9/8
A:Lancashire
B:Winder
K:G
c|\
Bcd dBG G2d | e/2f/2ge dBG G2d |\
Bcd dBG G2B | ABA AFD D2 :|*
|:c|\
c2B EFE E2c | B2E EFE D2c |\
B2E EFE EFG | ABA AFD D2 :|**


